symbols/web/credit_card_off/materialsymbolsrounded/credit_card_off_fill1_20px.svg

<svg xmlns="http://www.w3.org/2000/svg" height="20" width="20"><path d="m18.146 15.708-5.625-5.625h4.062V6.646H9.104L5.792 3.333h10.791q.729 0 1.24.511.51.51.51 1.239v9.834q0 .229-.041.416-.042.188-.146.375ZM3.417 10.083h4.208L4.188 6.646h-.771Zm12.333 8.125-1.562-1.541H3.417q-.729 0-1.24-.511-.51-.51-.51-1.239V5.083q0-.708.489-1.208.49-.5 1.177-.542l1.75 1.75H2.625l-1.5-1.5q-.25-.25-.25-.604t.25-.604q.25-.25.615-.25.364 0 .614.25L16.979 17q.25.25.25.604t-.25.604q-.25.25-.614.25-.365 0-.615-.25Z"/></svg>

<svg xmlns="http://www.w3.org/2000/svg" height="20" width="20"><path d="M15.75 18.208 14.188 16.667H3.417Q2.688 16.667 2.177 16.156Q1.667 15.646 1.667 14.917V5.083Q1.667 4.875 1.708 4.677Q1.75 4.479 1.854 4.312L1.125 3.583Q0.875 3.333 0.865 2.979Q0.854 2.625 1.125 2.354Q1.375 2.104 1.729 2.115Q2.083 2.125 2.354 2.375L16.979 17Q17.229 17.25 17.24 17.594Q17.25 17.938 16.979 18.208Q16.729 18.458 16.365 18.458Q16 18.458 15.75 18.208ZM18.146 15.708 12.521 10.083H16.583V6.646H9.104L5.792 3.333H16.583Q17.312 3.333 17.823 3.844Q18.333 4.354 18.333 5.083V14.917Q18.333 15.146 18.292 15.333Q18.25 15.521 18.146 15.708ZM3.417 10.083H7.625L4.188 6.646H3.417Z"/></svg>
